frontend/public/svg/interface/filter.svg

<svg width="150" height="144" viewBox="0 0 150 144" fill="none" xmlns="http://www.w3.org/2000/svg">
<g clip-path="url(#clip0)">
<path d="M144.896 2.66593C144.211 2.47473 143.507 2.35489 142.795 2.30804C129.307 1.61528 115.82 0.932719 104.687 0.369692L99.7422 0.120114C99.7233 0.118816 99.7051 0.118816 99.6862 0.120114C95.3301 0.262816 91.3754 0.375749 87.6895 0.482128C80.3338 0.692939 73.9808 0.874956 67.6708 1.19539C53.1183 1.94198 38.3262 2.79171 24.0235 3.6142C18.7984 3.91431 13.5733 4.21353 8.34807 4.51148C7.42655 4.54758 6.5086 4.64908 5.60156 4.81553C4.77049 4.94128 3.97819 5.25145 3.28328 5.72294C2.58837 6.19444 2.00864 6.81534 1.58643 7.54001C1.23705 8.26254 1.05509 9.05409 1.05396 9.8562C1.05283 10.6583 1.23241 11.4505 1.57976 12.174C2.36342 13.9391 3.32729 15.6191 4.45624 17.1874C18.8848 38.1537 34.4928 58.2887 51.2052 77.4954C52.018 78.4872 52.5365 79.6859 52.7019 80.9559C53.2042 85.0807 53.5287 89.212 53.8612 94.1449C54.4642 103.101 55.0515 112.059 55.6232 121.017C55.9173 125.554 56.2118 130.091 56.5068 134.628L56.5563 135.435C56.6213 136.494 56.6832 137.59 56.8556 138.667C57.1926 140.778 58.1406 142.299 59.5967 143.063C60.2738 143.414 61.0271 143.594 61.7901 143.587C62.8702 143.56 63.9307 143.294 64.8951 142.808C65.7045 142.424 66.5074 142.024 67.3103 141.625C68.7645 140.9 70.2675 140.151 71.779 139.523C77.5048 137.148 83.347 134.774 88.9953 132.479C91.4821 131.467 93.9683 130.456 96.4544 129.443C100.148 127.936 101.046 126.577 101.028 122.519C101.016 120.036 101.012 117.553 101.014 115.069C101.014 110.309 101.008 105.388 100.93 100.546L100.903 98.8003C100.809 92.5966 100.708 86.1808 100.231 79.8902C100.01 76.9655 100.544 74.9605 102.075 72.9614C103.929 70.5445 105.739 68.0368 107.49 65.6115C108.87 63.6999 110.296 61.7242 111.732 59.8094C117.026 52.7469 122.333 45.6937 127.652 38.6498C131.358 33.7313 135.062 28.812 138.765 23.8917C141.758 19.9084 144.946 15.6541 148.091 11.3179C149.365 9.55873 149.748 7.70165 149.169 6.08844C148.579 4.4519 147.062 3.23415 144.896 2.66593ZM90.2056 82.7851C90.4658 91.5951 90.6122 100.558 90.7508 109.227C90.8055 112.617 90.8621 116.007 90.92 119.396C90.9317 120.041 90.9284 120.687 90.9252 121.45V122.321L66.441 131.953L66.4371 131.93C66.3551 131.558 66.3044 131.179 66.2849 130.798C66.173 119.887 64.7733 109.06 63.4219 98.5888C62.7345 93.6701 62.3281 88.7164 62.2041 83.751C62.0974 77.1263 60.1218 71.9021 55.9908 67.3103C48.9845 59.5221 43.0143 52.4563 37.7394 45.7038C32.0904 38.4746 26.5441 30.9659 21.1807 23.7043C18.9828 20.7291 16.7813 17.7573 14.576 14.7891C14.5014 14.6823 14.4384 14.5681 14.388 14.4481C15.8445 14.3715 17.2853 14.297 18.7103 14.2244C22.5739 14.0266 26.224 13.839 29.9334 13.6191C35.9012 13.265 41.8685 12.8973 47.835 12.5163L55.2649 12.0508C71.7725 11.0227 91.38 10.069 111.617 10.7727L135.487 11.6083L135.267 11.9697C134.876 12.6451 134.449 13.2992 133.988 13.9293C132.199 16.2691 130.398 18.5994 128.584 20.9203C125.265 25.1903 121.832 29.605 118.579 34.043C116.739 36.5555 114.886 39.0599 113.02 41.5564C106.437 50.4078 99.6303 59.5611 93.7607 69.1694C91.2212 73.2448 89.9811 77.9923 90.2042 82.7851H90.2056Z" fill="black"/>
</g>
<defs>
<clipPath id="clip0">
<rect width="149" height="144" fill="white" transform="translate(0.777344)"/>
</clipPath>
</defs>
</svg>

<svg xmlns="http://www.w3.org/2000/svg" width="150" height="144" fill="none" viewBox="0 0 150 144"><g clip-path="url(#a)"><path fill="#000" d="M144.896 2.666a10.3 10.3 0 0 0-2.101-.358C129.307 1.615 115.82.933 104.687.37L99.742.12h-.056c-4.356.143-8.31.256-11.997.362-7.355.21-13.708.393-20.018.713-14.553.747-29.345 1.597-43.648 2.42q-7.837.45-15.675.896c-.921.037-1.84.138-2.746.305A5.63 5.63 0 0 0 1.586 7.54a5.34 5.34 0 0 0-.006 4.634 28 28 0 0 0 2.876 5.013 674 674 0 0 0 46.75 60.308 6.86 6.86 0 0 1 1.496 3.46c.502 4.126.827 8.257 1.16 13.19a7709 7709 0 0 1 1.761 26.872l.884 13.611.05.807c.064 1.059.126 2.155.299 3.232.337 2.111 1.285 3.632 2.74 4.396a4.7 4.7 0 0 0 2.194.524 7.3 7.3 0 0 0 3.105-.779c.81-.384 1.612-.784 2.415-1.183 1.454-.725 2.957-1.474 4.469-2.102a2581 2581 0 0 1 17.216-7.044l7.46-3.036c3.693-1.507 4.591-2.866 4.573-6.924a1321 1321 0 0 1-.014-7.45c0-4.76-.006-9.681-.084-14.523l-.027-1.746c-.094-6.203-.195-12.62-.672-18.91-.221-2.924.313-4.93 1.844-6.929 1.854-2.416 3.664-4.924 5.415-7.35 1.38-1.911 2.806-3.887 4.242-5.802a7501 7501 0 0 1 15.92-21.16q5.559-7.377 11.113-14.757c2.993-3.984 6.181-8.238 9.326-12.574 1.274-1.76 1.657-3.616 1.078-5.23-.59-1.636-2.107-2.854-4.273-3.422m-54.69 80.12c.26 8.81.406 17.772.545 26.441q.082 5.085.169 10.169c.012.645.008 1.291.005 2.054v.871l-24.484 9.632-.004-.023a7 7 0 0 1-.152-1.132c-.112-10.911-1.512-21.738-2.863-32.21a131 131 0 0 1-1.218-14.837c-.107-6.625-2.082-11.849-6.213-16.44-7.007-7.789-12.977-14.855-18.252-21.607-5.649-7.23-11.195-14.738-16.558-22q-3.297-4.463-6.605-8.915a2 2 0 0 1-.188-.34l4.322-.225c3.864-.197 7.514-.385 11.223-.605q8.952-.531 17.902-1.103l7.43-.465c16.507-1.028 36.115-1.982 56.352-1.278l23.87.835-.22.362q-.587 1.014-1.279 1.96a831 831 0 0 1-5.404 6.99c-3.319 4.27-6.752 8.685-10.005 13.123a957 957 0 0 1-5.559 7.513c-6.583 8.852-13.39 18.005-19.26 27.613a23.66 23.66 0 0 0-3.556 13.616z"/></g><defs><clipPath id="a"><path fill="#fff" d="M.777 0h149v144h-149z"/></clipPath></defs></svg>
